dist/img/icons/Vector.svg

<svg width="68" height="59" viewBox="0 0 68 59" fill="none" xmlns="http://www.w3.org/2000/svg">
<path fill-rule="evenodd" clip-rule="evenodd" d="M32.2463 0.0616566L32.2108 0H17.4668L0 29.9431L11.99 50.9223L12.0047 50.8969L16.5374 58.7478L51.2023 58.9029L63.3759 38.0295H63.2949L67.792 30.2404L50.5939 0.142154L32.2463 0.0616566ZM43.6518 20.0302H43.7437L35.0767 4.97739L47.7413 5.03291L62.1375 30.2277L57.6314 38.0327L45.8226 38.0389L49.9399 30.9081L43.6518 20.0302ZM29.2438 4.90318L35.1536 15.1267L26.9712 15.1264L12.9627 39.4199L12.0072 41.0706L5.6619 29.9681L20.2831 4.90318H29.2438ZM23.5619 30.8543L29.8037 20.0297L37.9881 20.03L44.2772 30.9095L40.159 38.0421L27.7154 38.0488L23.5619 30.8543ZM14.8338 45.9906L17.2085 41.8725L20.7398 35.7729L24.8853 42.9535L37.327 42.9468L37.3069 42.9816L54.7996 43.0023L48.3932 53.987L19.3756 53.8572L14.8338 45.9906Z" fill="#333237"/>
</svg>

<svg width="68" height="59" fill="none" xmlns="http://www.w3.org/2000/svg"><path fill-rule="evenodd" clip-rule="evenodd" d="M32.246.062L32.211 0H17.467L0 29.943l11.99 20.98.015-.026 4.532 7.85 34.665.156L63.376 38.03h-.081l4.497-7.79L50.594.142 32.246.062zM43.652 20.03h.092L35.077 4.977l12.664.056 14.397 25.195-4.507 7.805-11.808.006 4.117-7.13-6.288-10.879zM29.244 4.903l5.91 10.224H26.97L12.963 39.42l-.956 1.65-6.345-11.102L20.283 4.903h8.96zm-5.682 25.951l6.242-10.824h8.184l6.29 10.88-4.119 7.132-12.444.007-4.153-7.195zm-8.728 15.137l2.375-4.118 3.53-6.1 4.146 7.18 12.442-.006-.02.035 17.493.02-6.407 10.985-29.017-.13-4.542-7.866z" fill="#333237"/></svg>
